svgs/microsoft_word.svg

<svg xmlns="http://www.w3.org/2000/svg" viewBox="0 0 24 24"><path d="M22 4.09v15.76a1 1 0 0 1-1 1H8.07a1 1 0 0 1-1-1v-1.71a.15.15 0 0 1 .11-.14h4.23A1.68 1.68 0 0 0 13 17h9v-1h-8.92v-3.5H22v-1h-8.92V8.06H22v-1h-9.07A1.79 1.79 0 0 0 11.27 6H7.18A.15.15 0 0 1 7 5.8V4.09a1 1 0 0 1 1-1h13a1 1 0 0 1 1 1Z"/><path d="M11.47 6.94H2.86a.87.87 0 0 0-.86.87v8.34a.86.86 0 0 0 .86.86h8.61a.6.6 0 0 0 .6-.6V7.54a.6.6 0 0 0-.6-.6Zm-1.9 8.22H8.43l-1.38-4.35-1.38 4.35H4.53L3.28 8.81h1.16l.84 4.4L6.6 8.93h.9l1.32 4.28.84-4.4h1.16Z"/></svg>

<svg id="vector" xmlns="http://www.w3.org/2000/svg" width="24" height="24" viewBox="0 0 24 24"><path fill="#FF000000" d="M22,4.09V19.85a1,1 0,0 1,-1 1H8.07a1,1 0,0 1,-1 -1V18.14A0.15,0.15 0,0 1,7.18 18h4.23A1.68,1.68 0,0 0,13 17h9v-1H13.08V12.5H22v-1H13.08V8.06H22v-1H12.93A1.79,1.79 0,0 0,11.27 6H7.18A0.15,0.15 0,0 1,7 5.8V4.09a1,1 0,0 1,1 -1H21A1,1 0,0 1,22 4.09Z" id="path_0"/><path fill="#FF000000" d="M11.47,6.94L2.86,6.94A0.87,0.87 0,0 0,2 7.81v8.34a0.86,0.86 0,0 0,0.86 0.86h8.61a0.6,0.6 0,0 0,0.6 -0.6L12.07,7.54A0.6,0.6 0,0 0,11.47 6.94ZM9.57,15.16L8.43,15.16L7.05,10.81 5.67,15.16L4.53,15.16L3.28,8.81L4.44,8.81l0.84,4.4L6.6,8.93h0.9l1.32,4.28 0.84,-4.4h1.16Z" id="path_1"/></svg>
